source/assets/images/twitter.svg

<?xml version="1.0" encoding="utf-8"?>
<!-- Generator: Adobe Illustrator 18.0.0, SVG Export Plug-In . SVG Version: 6.00 Build 0)  -->
<!DOCTYPE svg PUBLIC "-//W3C//DTD SVG 1.1//EN" "http://www.w3.org/Graphics/SVG/1.1/DTD/svg11.dtd">
<svg version="1.1" xmlns="http://www.w3.org/2000/svg" xmlns:xlink="http://www.w3.org/1999/xlink" x="0px" y="0px"
	 viewBox="0 0 50.1 50.1" enable-background="new 0 0 50.1 50.1" xml:space="preserve">
<g id="Layer_1">
	<path id="twitter-4-icon_2_" fill="#FFFFFF" d="M25.1,0C11.2,0,0,11.2,0,25.1s11.2,25.1,25.1,25.1s25.1-11.2,25.1-25.1
		S38.9,0,25.1,0z M37.6,20.7C38,28.9,31.9,38,21.1,38c-3.3,0-6.3-1-8.9-2.6c3.1,0.4,6.2-0.5,8.6-2.4c-2.5,0-4.7-1.7-5.4-4
		c0.9,0.2,1.8,0.1,2.6-0.1c-2.8-0.6-4.7-3.1-4.7-5.8c0.8,0.4,1.7,0.7,2.6,0.7c-2.6-1.7-3.3-5.1-1.8-7.8c2.9,3.5,7.1,5.8,12,6.1
		c-0.8-3.6,1.9-7.1,5.7-7.1c1.7,0,3.2,0.7,4.2,1.8c1.3-0.3,2.6-0.7,3.7-1.4c-0.4,1.4-1.4,2.5-2.6,3.2c1.2-0.1,2.3-0.5,3.3-0.9
		C39.8,18.9,38.8,19.9,37.6,20.7z"/>
</g>
<g id="Layer_2" display="none">
</g>
</svg>

<?xml version="1.0" encoding="UTF-8" standalone="no"?>
<svg width="51px" height="51px" viewBox="0 0 51 51" version="1.1" xmlns="http://www.w3.org/2000/svg" xmlns:xlink="http://www.w3.org/1999/xlink">
    <!-- Generator: Sketch 39 (31667) - http://www.bohemiancoding.com/sketch -->
    <title>twitter-4-icon_2_</title>
    <desc>Created with Sketch.</desc>
    <defs></defs>
    <g id="Page-1" stroke="none" stroke-width="1" fill="none" fill-rule="evenodd">
        <g id="Layer_1" fill="#5B5B5B">
            <path d="M25.1,0 C11.2,0 0,11.2 0,25.1 C0,39 11.2,50.2 25.1,50.2 C39,50.2 50.2,39 50.2,25.1 C50.2,11.2 38.9,0 25.1,0 L25.1,0 Z M37.6,20.7 C38,28.9 31.9,38 21.1,38 C17.8,38 14.8,37 12.2,35.4 C15.3,35.8 18.4,34.9 20.8,33 C18.3,33 16.1,31.3 15.4,29 C16.3,29.2 17.2,29.1 18,28.9 C15.2,28.3 13.3,25.8 13.3,23.1 C14.1,23.5 15,23.8 15.9,23.8 C13.3,22.1 12.6,18.7 14.1,16 C17,19.5 21.2,21.8 26.1,22.1 C25.3,18.5 28,15 31.8,15 C33.5,15 35,15.7 36,16.8 C37.3,16.5 38.6,16.1 39.7,15.4 C39.3,16.8 38.3,17.9 37.1,18.6 C38.3,18.5 39.4,18.1 40.4,17.7 C39.8,18.9 38.8,19.9 37.6,20.7 L37.6,20.7 Z" id="twitter-4-icon_2_"></path>
        </g>
    </g>
</svg>
